public/avatar/emote/83.svg

<svg xmlns:xlink="http://www.w3.org/1999/xlink" height="100.8" width="132.65" xmlns="http://www.w3.org/2000/svg"><g transform="translate(77.75 73.55)"><use height="9.95" transform="matrix(.6587 0 0 .9163 -8.694 4.146)" width="25.5" xlink:href="#a"/><use height="5.2" transform="translate(-12.25 -1.95)" width="24.45" xlink:href="#b"/><use height="9.9" transform="matrix(1.1 0 0 1.1 .7 -7.7)" width="7.25" xlink:href="#c"/><use height="9.9" transform="matrix(1.1 0 0 1.1 -9.05 -7.7)" width="7.25" xlink:href="#c"/></g><defs><g id="i"><path d="M8.05.2q.25 1.25-.95 2.85h-1L5.7 3v-.45l-.05-.5-.2-.55q-.2-.35-.7-.35-.55-.05-.8.35-.25.35-.35.85l-.05.55-10.25.65q-.65-.7-.95-2.75L5.2-.05 8.05.2" fill="#fff" fill-rule="evenodd" transform="translate(13.2 .55)"/><path d="M-6.6 6.85q5.85-2.7 12.85-.2L.3 8.9l-6.9-2.05" fill="#c00" fill-rule="evenodd" transform="translate(13.2 .55)"/><path d="M-7.65.8q.3 2.05.95 2.75L3.55 2.9l.05-.55q.1-.5.35-.85.25-.4.8-.35.5 0 .7.35l.2.55.05.5V3l.4.05h1q1.2-1.6.95-2.85l2.3.25q4.25 2.1-4.1 6.2-7-2.5-12.85.2-4.55-1.75-5.75-3.1-1.2-1.4 2-2.5l2.7-.45" fill-rule="evenodd" transform="translate(13.2 .55)"/><path d="M8.05.2 5.2-.05-7.65.8l-2.7.45q-3.2 1.1-2 2.5 1.2 1.35 5.75 3.1L.3 8.9l5.95-2.25q8.35-4.1 4.1-6.2L8.05.2Z" fill="none" stroke="#333" stroke-linecap="round" stroke-linejoin="round" transform="translate(13.2 .55)"/></g><g id="c"><use height="9.75" transform="translate(.15 .15)" width="7.1" xlink:href="#d"/><use height="4.95" transform="translate(.15 4.95)" width="3.5" xlink:href="#e"/><use height="4.9" transform="translate(3.2 5)" width="4.05" xlink:href="#f"/><use height="4.85" transform="translate(3.4 .15)" width="3.85" xlink:href="#g"/><use height="5.1" width="3.5" xlink:href="#h"/></g><g id="e"><path d="M.15 5.25q0 1.9.9 3.25 1.05 1.35 2.5 1.4Q2.9 5.25.35 5.25h-.2" fill="#f39" fill-rule="evenodd" transform="translate(-.15 -4.95)"/><path d="M.15 5.25h.2q2.55 0 3.2 4.65-1.45-.05-2.5-1.4-.9-1.35-.9-3.25Z" fill="none" stroke="#000" stroke-linecap="round" stroke-linejoin="round" stroke-opacity="0" transform="translate(-.15 -4.95)"/></g><g id="f"><path d="M3.55 9.9h.1q1.4 0 2.55-1.4 1-1.35 1.05-3.25-3.3-.1-3.7 4.65" fill="#f39" fill-rule="evenodd" transform="translate(-3.2 -5)"/><path d="M3.55 9.9q.4-4.75 3.7-4.65Q7.2 7.15 6.2 8.5 5.05 9.9 3.65 9.9h-.1Z" fill="none" stroke="#000" stroke-linecap="round" stroke-linejoin="round" stroke-opacity="0" transform="translate(-3.2 -5)"/></g><g id="g"><path d="M3.55.15Q3.6 4.6 7.25 5q0-2.15-1.05-3.55Q5.05.05 3.65.15h-.1" fill="#f39" fill-rule="evenodd" transform="translate(-3.4 -.15)"/><path d="M3.55.15h.1q1.4-.1 2.55 1.3Q7.25 2.85 7.25 5 3.6 4.6 3.55.15Z" fill="none" stroke="#000" stroke-linecap="round" stroke-linejoin="round" stroke-opacity="0" transform="translate(-3.4 -.15)"/></g><g id="h"><path d="M0 4.9v.2L.2 5q3.2-.7 3.2-5Q1.95-.05.95 1.3 0 2.7 0 4.9" fill="#f39" fill-rule="evenodd"/><path d="M0 4.9q0-2.2.95-3.6Q1.95-.05 3.4 0q0 4.3-3.2 5l-.2.1v-.2Z" fill="none" stroke="#000" stroke-linecap="round" stroke-linejoin="round" stroke-opacity="0"/></g><path d="M8.65-.15q3.5 1.8 3.55 2.8 0 .95-3.15.4L.9 2.3l-9.05.55-4.1-.2q0-.95 3.7-2.75Q-4.9-1.95.15-1.95q5-.05 8.5 1.8" fill="red" fill-opacity=".4" fill-rule="evenodd" transform="translate(12.25 1.95)" id="b"/><path d="M6.2 1.45q1 1.35 1.05 3.45V5Q7.2 7.15 6.2 8.45q-1.15 1.4-2.55 1.4h-.1v.05q-1.45-.05-2.5-1.4-.9-1.35-.9-3.25v-.2q0-2.2.95-3.6Q2.1.1 3.55.15h.1q1.4-.1 2.55 1.3" fill="#fff" fill-rule="evenodd" transform="translate(-.15 -.15)" id="d"/><use height="9.95" width="25.5" xlink:href="#i" id="a"/></defs></svg>

<?xml version="1.0" encoding="UTF-8" standalone="no"?>
<svg xmlns:xlink="http://www.w3.org/1999/xlink" height="100.8px" width="132.65px" xmlns="http://www.w3.org/2000/svg">
  <g transform="matrix(1.0, 0.0, 0.0, 1.0, 77.75, 73.55)">
    <use height="9.95" transform="matrix(0.6587, 0.0, 0.0, 0.9163, -8.6943, 4.146)" width="25.5" xlink:href="#sprite0"/>
    <use height="5.2" transform="matrix(1.0, 0.0, 0.0, 1.0, -12.25, -1.95)" width="24.45" xlink:href="#shape1"/>
    <use height="9.9" transform="matrix(1.1, 0.0, 0.0, 1.1, 0.7, -7.7)" width="7.25" xlink:href="#sprite1"/>
    <use height="9.9" transform="matrix(1.1, 0.0, 0.0, 1.1, -9.05, -7.7)" width="7.25" xlink:href="#sprite1"/>
  </g>
  <defs>
    <g id="sprite0" transform="matrix(1.0, 0.0, 0.0, 1.0, 13.2, 0.55)">
      <use height="9.95" transform="matrix(1.0, 0.0, 0.0, 1.0, -13.2, -0.55)" width="25.5" xlink:href="#shape0"/>
    </g>
    <g id="shape0" transform="matrix(1.0, 0.0, 0.0, 1.0, 13.2, 0.55)">
      <path d="M8.05 0.2 Q8.3 1.45 7.1 3.05 L6.1 3.05 5.7 3.0 5.7 2.85 5.7 2.55 5.65 2.05 5.45 1.5 Q5.25 1.15 4.75 1.15 4.2 1.1 3.95 1.5 3.7 1.85 3.6 2.35 L3.55 2.9 -6.7 3.55 Q-7.35 2.85 -7.65 0.8 L5.2 -0.05 8.05 0.2" fill="#ffffff" fill-rule="evenodd" stroke="none"/>
      <path d="M-6.6 6.85 Q-0.75 4.15 6.25 6.65 L0.3 8.9 -6.6 6.85" fill="#cc0000" fill-rule="evenodd" stroke="none"/>
      <path d="M-7.65 0.8 Q-7.35 2.85 -6.7 3.55 L3.55 2.9 3.6 2.35 Q3.7 1.85 3.95 1.5 4.2 1.1 4.75 1.15 5.25 1.15 5.45 1.5 L5.65 2.05 5.7 2.55 5.7 2.85 5.7 3.0 6.1 3.05 7.1 3.05 Q8.3 1.45 8.05 0.2 L10.35 0.45 Q14.6 2.55 6.25 6.65 -0.75 4.15 -6.6 6.85 -11.15 5.1 -12.35 3.75 -13.55 2.35 -10.35 1.25 L-7.65 0.8" fill="#000000" fill-rule="evenodd" stroke="none"/>
      <path d="M8.05 0.2 L5.2 -0.05 -7.65 0.8 -10.35 1.25 Q-13.55 2.35 -12.35 3.75 -11.15 5.1 -6.6 6.85 L0.3 8.9 6.25 6.65 Q14.6 2.55 10.35 0.45 L8.05 0.2 Z" fill="none" stroke="#333333" stroke-linecap="round" stroke-linejoin="round" stroke-width="1.0"/>
    </g>
    <g id="shape1" transform="matrix(1.0, 0.0, 0.0, 1.0, 12.25, 1.95)">
      <path d="M8.65 -0.15 Q12.15 1.65 12.2 2.65 12.2 3.6 9.05 3.05 L0.9 2.3 -8.15 2.85 -12.25 2.65 Q-12.25 1.7 -8.55 -0.1 -4.9 -1.95 0.15 -1.95 5.15 -2.0 8.65 -0.15" fill="#ff0000" fill-opacity="0.4" fill-rule="evenodd" stroke="none"/>
    </g>
    <g id="sprite1" transform="matrix(1.0, 0.0, 0.0, 1.0, 0.0, 0.0)">
      <use height="9.75" transform="matrix(1.0, 0.0, 0.0, 1.0, 0.15, 0.15)" width="7.1" xlink:href="#shape2"/>
      <use height="4.95" transform="matrix(1.0, 0.0, 0.0, 1.0, 0.15, 4.95)" width="3.5" xlink:href="#morphshape0"/>
      <use height="4.9" transform="matrix(1.0, 0.0, 0.0, 1.0, 3.2, 5.0)" width="4.05" xlink:href="#morphshape1"/>
      <use height="4.85" transform="matrix(1.0, 0.0, 0.0, 1.0, 3.4, 0.15)" width="3.85" xlink:href="#morphshape2"/>
      <use height="5.1" transform="matrix(1.0, 0.0, 0.0, 1.0, 0.0, 0.0)" width="3.5" xlink:href="#morphshape3"/>
    </g>
    <g id="shape2" transform="matrix(1.0, 0.0, 0.0, 1.0, -0.15, -0.15)">
      <path d="M6.2 1.45 Q7.2 2.8 7.25 4.9 L7.25 5.0 Q7.2 7.15 6.2 8.45 5.05 9.85 3.65 9.85 L3.55 9.85 3.55 9.9 Q2.1 9.85 1.05 8.5 0.15 7.15 0.15 5.25 L0.15 5.05 Q0.15 2.85 1.1 1.45 2.1 0.1 3.55 0.15 L3.65 0.15 Q5.05 0.05 6.2 1.45" fill="#ffffff" fill-rule="evenodd" stroke="none"/>
    </g>
    <g id="morphshape0" transform="matrix(1.0, 0.0, 0.0, 1.0, -0.15, -4.95)">
      <path d="M0.15 5.25 Q0.15 7.15 1.05 8.5 2.1 9.85 3.55 9.9 2.9 5.25 0.35 5.25 L0.15 5.25" fill="#ff3399" fill-rule="evenodd" stroke="none"/>
      <path d="M0.15 5.25 L0.35 5.25 Q2.9 5.25 3.55 9.9 2.1 9.85 1.05 8.5 0.15 7.15 0.15 5.25 Z" fill="none" stroke="#000000" stroke-linecap="round" stroke-linejoin="round" stroke-opacity="0.0" stroke-width="1.0"/>
    </g>
    <g id="morphshape1" transform="matrix(1.0, 0.0, 0.0, 1.0, -3.2, -5.0)">
      <path d="M3.55 9.9 L3.65 9.9 Q5.05 9.9 6.2 8.5 7.2 7.15 7.25 5.25 3.95 5.15 3.55 9.9" fill="#ff3399" fill-rule="evenodd" stroke="none"/>
      <path d="M3.55 9.9 Q3.95 5.15 7.25 5.25 7.2 7.15 6.2 8.5 5.05 9.9 3.65 9.9 L3.55 9.9 Z" fill="none" stroke="#000000" stroke-linecap="round" stroke-linejoin="round" stroke-opacity="0.0" stroke-width="1.0"/>
    </g>
    <g id="morphshape2" transform="matrix(1.0, 0.0, 0.0, 1.0, -3.4, -0.15)">
      <path d="M3.55 0.15 Q3.6 4.6 7.25 5.0 7.25 2.85 6.2 1.45 5.05 0.05 3.65 0.15 L3.55 0.15" fill="#ff3399" fill-rule="evenodd" stroke="none"/>
      <path d="M3.55 0.15 L3.65 0.15 Q5.05 0.05 6.2 1.45 7.25 2.85 7.25 5.0 3.6 4.6 3.55 0.15 Z" fill="none" stroke="#000000" stroke-linecap="round" stroke-linejoin="round" stroke-opacity="0.0" stroke-width="1.0"/>
    </g>
    <g id="morphshape3" transform="matrix(1.0, 0.0, 0.0, 1.0, 0.0, 0.0)">
      <path d="M0.0 4.9 L0.0 5.1 0.2 5.0 Q3.4 4.3 3.4 0.0 1.95 -0.05 0.95 1.3 0.0 2.7 0.0 4.9" fill="#ff3399" fill-rule="evenodd" stroke="none"/>
      <path d="M0.0 4.9 Q0.0 2.7 0.95 1.3 1.95 -0.05 3.4 0.0 3.4 4.3 0.2 5.0 L0.0 5.1 0.0 4.9 Z" fill="none" stroke="#000000" stroke-linecap="round" stroke-linejoin="round" stroke-opacity="0.0" stroke-width="1.0"/>
    </g>
  </defs>
</svg>
